images/nav-icon.svg

<svg xmlns="http://www.w3.org/2000/svg" viewBox="0 0 256 256" enable-background="new 0 0 256 256"><path d="M26.4 36.9h203.2c9.9 0 17.9 8 17.9 17.9 0 9.9-8 17.9-17.9 17.9h-203.2c-9.9 0-17.9-8-17.9-17.9 0-9.9 8-17.9 17.9-17.9zm0 73.7h203.2c9.9 0 17.9 8 17.9 17.9 0 9.9-8 17.9-17.9 17.9h-203.2c-9.9 0-17.9-8-17.9-17.9 0-9.9 8-17.9 17.9-17.9zm0 73.6h203.2c9.9 0 17.9 8 17.9 17.9 0 9.9-8 17.9-17.9 17.9h-203.2c-9.9 0-17.9-8-17.9-17.9 0-9.9 8-17.9 17.9-17.9z"/></svg>

<?xml version="1.0" encoding="utf-8"?>
<!-- Generator: Adobe Illustrator 22.0.1, SVG Export Plug-In . SVG Version: 6.00 Build 0)  -->
<svg version="1.1" id="Layer_1" xmlns="http://www.w3.org/2000/svg" xmlns:xlink="http://www.w3.org/1999/xlink" x="0px" y="0px"
	 viewBox="0 0 256 256" style="enable-background:new 0 0 256 256;" xml:space="preserve">
<path d="M26.4,36.9h203.2c9.9,0,17.9,8,17.9,17.9v0c0,9.9-8,17.9-17.9,17.9H26.4c-9.9,0-17.9-8-17.9-17.9v0
	C8.5,44.9,16.5,36.9,26.4,36.9z M26.4,110.6h203.2c9.9,0,17.9,8,17.9,17.9v0c0,9.9-8,17.9-17.9,17.9H26.4c-9.9,0-17.9-8-17.9-17.9v0
	C8.5,118.6,16.5,110.6,26.4,110.6z M26.4,184.2h203.2c9.9,0,17.9,8,17.9,17.9v0c0,9.9-8,17.9-17.9,17.9H26.4
	c-9.9,0-17.9-8-17.9-17.9v0C8.5,192.2,16.5,184.2,26.4,184.2z"/>
</svg>
